X:1
T:Toutes les nuictz
T:Toutes les nuictz
T:Thomas Crecquillon
C:Thomas Crecquillon
%%score [ 1 [ 2 3 ] 4 ]
L:1/8
Q:1/4=80
M:2/2
K:F
V:1 treble nm="Superius" snm="S"
V:2 treble-8 nm="Tenor 1" snm="T 1"
V:3 treble-8 nm="Tenor 2" snm="T 2"
V:4 bass nm="Bassus" snm="B"
V:1
 F4 c4 | d3 c BA B2- | BA A4 G2 | A2 A2 A4- | A2 G2 F2 F2 | EDEF G2 A2- | AG F4 E2 | F8 | %8
w: Tou- tes|les _ _ _ _|_ _ _ _|nuictz que sans|_ vous je me|cou- * * * * *||che|
 c2 cc F2 F2 | B2 B2 A3 G | F3 E D4 | C2 c2 c2 c2 | A4 z2 G2 | B6 A2 | G2 F2 E4- | E4 z2 c2 | %16
w: pen- sant à vous, ne|fais que som- *|* * meil-|ler, et en res-|vant jus-|ques au|res- veil- ler,|_ in-|
 A2 GF G2 G2 | C2 c3 B B2- | B2 A2 B3 A | GF G4 F2- | F2 E2 F2 A2 | c2 c2 B2 A2 | B4 A2 c2 | %23
w: ces- sa- * ment, in|ces- * * *||* * sa- ment|_ vous quie- re-|ra par- my la|cou- che, et|
 cBAG FFFE | D4 CccB | AGFG AA B2 | A4 G3 A | Bc d3 c c2- | c2 B2 c4 | z2 A2 B4- | B2 A2 A2 F2 | %31
w: bien sou- vent en lieu de vos- tre|bou- che, et bien sou-|vent en lieu de vos- tre bou-|||* * che,|en sou-|* spi- rant, en|
 G6 F2 | F4 z2 F2 | B6 B2 | A2 G3 F F2- | F2 E2 F2 A2 | B6 A2 | A2 F2 G4- | G2 F2 F4 | z2 F2 B4- | %40
w: sou- spi-|rant, je|bai- se|l'o- reil- * *|* * ler, en-|sou- pi-|rant, en sou-|* pi- rant|je bai-|
 B2 B2 A2 G2- | GF F4 E2 | F2 F2 c4 | d3 c BA B2- | B2 A4 G2 | A8 |] %46
w: * se l'o- reil-||ler, tou- tes|les _ _ _ _|_ _ _|nuictz.|
V:2
 z4 f4- | f4 f4- | f2 f2 d3 e | f2 f2 f4- | f2 e2 d2 c2 | c3 B/A/ G2 c2- | cB B2 c4 | c2 cc d4 | %8
w: Tou-|* tes|_ les nuictz _|_ que sans|_ vous je me|cou- * * * *|* * * che|pen- sant à vous,|
 c4 d3 c | B2 B2 c2 A2 | B2 F2 GF f2- | f2 e2 f2 c2 | f2 f2 e4 | d2 g4 f2 | _e2 d2 c2 g2 | %15
w: ne fais _|_ que som- *||* * * et|en res- vant|jus- ques au|res- veil- ler, in-|
 gf ed c2 g2- | gf f4 e2 | a4 g2 e2 | f3 e dc d2- | dc c4 B2 | c4 A2 f2 | f2 f2 d2 f2 | f4 f4 | %23
w: ces- * * * * sa-|* * ment, in-|ces- * *||* * * sa-|vous- quie- re-|ra par- my la|cou- che,|
 c2 cB AG F2 | z2 f2 ffed | c2 f2 fe d2- | d2 c4 g2- | gf d2 f4 | g4 e4 | z2 f2 f4- | f2 f2 f2 c2 | %31
w: et bien sou- vent en lieu,|et bien sou- vent en|lieu, en- lieu de vos-|* tre bou-||* che,|en sou-|* pi- rant, en|
 _e6 c2 | c4 d4- | d4 B4 | e3 d c2 d2 | c4 A2 f2 | f6 f2 | f2 c2 _e4- | e2 c2 c4 | d8 | %40
w: sou- pi-|rant je|_ bai-|se l'o- reil- *|* ler, en|sou- pi-|rant, en sou-|* pi- rant|je|
"^b" B4 e3 d | c2 d2 c4 | A8 | z2 f4 f2 | f4 d3 e | f8 |] %46
w: bai- se l'o-|reil- * *|ler,|tou- tes|les nuictz. _|_|
V:3
 z4 F4 | B3 c dc d2- | dc c4 B2 | c4 z2 c2 | c2 B2 A2 A2 | G2 c3 B AG | F4 G4 | A4 B2 BB | %8
w: Tou-|tes _ _ _ _|_ _ _ les|nuictz que|sans vous je me|cou- * * * *||che pen- sant à|
 F4 z2 f2- | f2 e2 f3 e | d3 c B3 A | G4 F4 | z2 c2 c2 c2 | B2 B2 d3 c | B2 A2 G4 | z2 g2 e2 dc | %16
w: vous, ne|_ fais que _|som- * * *|meil- ler,|et en res-|vant jus- ques au|res- veil- ler,|in ces- * *|
 d2 d2 c4 | z2 f2 d2 cB | c2 c2 B4 | z2 c2 A2 GF | G2 G2 F2 F2 | A2 A2 B2 c2 | d4 cccB | %23
w: * sa- ment,|in ces- * *|* sa- ment-|in- ces- sa- *|ment vous quie- re-|ra par- my la|cou- che, et bien sou-|
 AGFG A2 A2 | B4 A2 c2 | cBAG F4 | f2 ff e4 | d2 B2 c4 | d4 c4 | z2 c2 d4- | d2 c2 c2 A2 | B6 A2 | %32
w: vent en lieu de vos- tre|bou- che et|bien sou- vent en lieu|de vos- tre bou-||* che,|en sou-|* pi- rant, en|sou- pi-|
 A2 F2 B3 A | G2 F2 G2 G2 | c3 B A2 B2 | G4 F2 c2 | d6 c2 | c2 A2 B4- | B2 A2 A2 F2 | B3 A G2 F2 | %40
w: rant je bai- *|* se l'o- reil-||* ler, en|sou- pi-|rant, en sou-|* pi- rant je|bai- * * se|
 G2 G2 c3 B | A2 B2 G4 | F4 z2 F2 | B3 c dc d2- | dc c4 B2 | c8 |] %46
w: l'o- reil- * *||ler, tou-|tes- * * * *|* * * les|nuictz.|
V:4
 z8 | B,,8 | F,4 G,4 | F,4 z2 F,2 | F,2 G,2 D,2 F,2 | C,3 D, E,2 F,2 | D,4 C,4 | %7
w: |Tou-|tes les|nuictz que|sans vous je me|cou- * * *|* che|
 F,2 F,F, B,,2 B,2 | B,2 A,2 B,3 A, | G,2 G,2 F,4 | B,,6 B,,2 | C,4 z2 F,2 | F,2 F,2 C,2 C,2 | %13
w: pen- sant à vous, ne|fais que som- *|* meil- *||ler, et|en res- vant jus-|
 G,6 D,2 | _E,2 F,2 C,4- | C,8 | z4 z2 C2 | A,2 G,F, G,2 G,2 | F,4 z2 G,2 | E,2 D,C, D,2 D,2 | %20
w: ques au|res- veil- ler,|_|in|ces- * * * sa-|ment, in|ces- * * * sa-|
 C,4 z2 F,2 | F,2 F,2 G,G,F,F, | B,4 F,4 | z2 F,2 F,E,D,C, | B,,C,D,E, F,2 C,2 | %25
w: ment vous-|quie- re ra par- my la|cou- che|et bien sou- vent en|lieu de vos- tre bou- che|
 F,2 F,E, D,C,B,,C, | D,E, F,2 C,D, E,F, | G,4 F,2 A,2 | G,4 C,4 | z2 F,2 B,4- | B,2 F,2 F,2 F,2 | %31
w: et bien sou- vent en lieu de|vos- tre bou- * * * *||* che,|en sou-|* pi- rant, en|
 _E,6 F,2 | F,4 B,,4- |"^b" B,,4 E,3 D, | C,2 E,2 F,2 B,,2 | C,4 z2 F,2 | B,6 F,2 | F,2 F,2 _E,4- | %38
w: sou- pi-|rant je|_ bai- *|* se l'o- reil-|ler, en|sou- pi-|rant, en sou-|
 E,2 F,2 F,4 | B,,8 |"^b" E,3 D, C,2 E,2 | F,2 B,,2 C,4 | F,4 z4 | B,,8 | F,4 G,4 | F,8 |] %46
w: * pi- rant|je|bai- * * se|l'o- reil- *|ler,|tou-|tes les|nuictz.|

